X: 15
T:Brendan McGlinchy's
T:Splendid Isolation
M:4/4
L:1/8
C:Brendan McGlinchy
S:Laurence Nugent
R:Reel
Z:Robert Greenway,  30/9/1999
K:GDor
G2AG FGAF|G2AG FGAc|d2cA g3c|dggd ^fgga|!
b2ag ^fdde|f3g ^fdcA|G2AG FGAc|d2cA G4:||!
||:g2ag f^ffd|g^fdc Acdc|AG~G2 AG^fd|AG~G2 FGAG|!
FGAG FAAG|F^FFG =FAg^f|dg~g2 fgag|^fdcA G4:||!

